X:144
T: Xifu zou niangjia
N: C1640
O: China,Hebei, Jingxian
S: IV, 68(2)]
R: Xiaodiao. Fun shenghuo ]
M: 2/4
L: 1/16
K: D
d4F4 | d4F4 | F2A2B2AB | d2F2E4 |
F2FFF2F2 | A2F2E2D2 | F2FFA2D2 | E2FED4 |
D3EF4 | z2F2 | F2FFA2D2 | E2FED4

@@@ Tune index: 6699
